X:1
T: Kate Kelly's Fancy
C:
R:Reel
Q: 232
K:G
M:4/4
L:1/8
dc|BA Bc dc Ac|BG GB d2 cA|BA Bc d2 cA|d2 cA BG G2|
BA Bc dc Ac|BG GB d2 cA|BA Bc d2 de|fd cA BG G2|
|:fg af g2 fd|d^c Ac d2 de|fg af g2 fd|dc Ac BG G2|
fg af g2 fd|d^c Ac d2 de|fg af gb ag|fd cA BG Ac:|
BA Bc dc Ac|BG GB d2 cA|BA Bc d2 cA|d2 cA BG G2|
BA Bc dc Ac|BG GB d2 cA|BA Bc d2 de|fd cA BG G2||
